X:1
T:Title
%%score 1 ( 2 3 )
L:1/8
Q:1/4=90
M:4/4
K:D
V:1 treble nm="Strings 1, Soprano"
V:2 bass nm="Strings 1, Bass"
V:3 bass 
V:1
 z4 z2 [FA][EG] | [DF]2 [DF][DF] [DF][CE][DF][EG] | [FA] [FA]3- [FA]2 [DF][EG] | %3
 [FA]2 [FA][FA] [DA]2 [CG][DF] | [CE]6 [CA][EG] | [DF]2 [DF][DF] [DF][CE][DF][CG] | %6
 [DA] [DA]3- [DA]2 [DB]2 | [DA]2 D[DE] [DF]2 [CE][CE] | D6 [DF][FA] | %9
 [Fd]2 [Fd][Fd] [Fd]2 [Ac][GB] | [FA] [DF]3- [DF]2 [FA]2 | [GB]2 [GB][GB] [Gd]2 [Gc][GB] | %12
 [FA]6 [FA][EG] | [DF]2 [DF][DF] [DF][CE][DF][CG] | [DA] [DA]3- [DA]2 [DB]2 | %15
 [DA]2 [DA][DG] [DF]2 [CE][CE] | [A,D]6 z2 |] %17
V:2
 z4 z2 [D,A,]2 | [D,A,]2 [D,A,][D,A,] A,-[A,,A,][D,A,][D,A,] | [D,D] [D,D]3- [D,D]2 [D,A,][D,A,] | %3
w: 1.~With|out~ spot~ and~ blame * less,~ O~|Sav ior,~ * What~ a~|
 [D,D]2 [D,D][D,D] [F,D]2 [E,A,][D,A,] | [A,,A,]6 [A,,A,]2 | %5
w: glo ri ous~ church~ Thou~ hast~|built!~ For~|
 [D,A,]2 [D,A,][D,A,] A,-[A,,A,][D,A,][E,A,] | [F,A,] [F,A,]3- [F,A,]2 [G,D]2 | %7
w: this~ Thou~ didst~ pa * tient ly~|suf fer,~ * For~|
 [F,D]2 [F,A,][G,B,] A,2 [A,,G,][A,,G,] | [D,F,]6 [D,A,]2 | %9
w: this~ was~ Thy~ blood~ free ly~|spilt.~ *|
 [D,A,]2 [D,A,][D,A,] [D,A,]2 [D,B,][D,C] | [D,D] [D,A,]3- [D,A,]2 [D,D]2 | %11
w: ||
 [G,D]2 [G,D][G,D] [G,B,]2 [G,D][G,D] | [D,D]6 [D,A,]2 | %13
w: ||
 [D,A,]2 [D,A,][D,A,] A,-[A,,A,][D,A,][E,A,] | [F,A,] [F,A,]3- [F,A,]2 [G,D]2 | %15
w: ||
 [F,D]2 [F,A,][G,B,] A,2 [A,,G,][A,,G,] | [D,F,]6 z2 |] %17
w: ||
V:3
 x8 | z4 .D,2 z2 | x8 | x8 | x8 | z4 .D,2 z2 | x8 | x8 | x8 | x8 | x8 | x8 | x8 | z4 .D,2 z2 | x8 | %15
 x8 | x8 |] %17

